X: 8
T:Black Joke, Ilmington
M:6/8
L:1/8
A:Ilmington
P:A(A2B2)4A2
K:A
P:A
E>AA A2A|B>cB B2B|c>dc cBA|B>cB BAG|A3 F3|E3 A3||
P:B
Ace  e2e|f>ga e2A|c>de e2e|fga  e3-|e3 d3|
c>dc cBA|BcB  BAG|c>dc cBA|B>cB BAG|A3 F3|E3 A3||
